Layouts/MINIMAL/dist/assets/images/socials/twitter.svg

<svg width="14" height="14" viewBox="0 0 14 14" fill="none" xmlns="http://www.w3.org/2000/svg">
<g clip-path="url(#clip0_1_133)">
<path d="M14 2.902C13.4843 3.12989 12.9313 3.28466 12.3503 3.35389C12.943 2.99844 13.3988 2.43533 13.6127 1.76566C13.0589 2.09466 12.4437 2.33344 11.7895 2.46178C11.2653 1.90411 10.5179 1.55566 9.69265 1.55566C8.10676 1.55566 6.82032 2.84055 6.82032 4.42722C6.82032 4.652 6.84521 4.87133 6.89498 5.08211C4.50721 4.96155 2.39087 3.81822 0.974541 2.08144C0.727207 2.50533 0.585652 2.99922 0.585652 3.52422C0.585652 4.52133 1.09276 5.40022 1.86354 5.91511C1.39299 5.90033 0.949652 5.77122 0.562319 5.55655C0.562319 5.56822 0.562319 5.57989 0.562319 5.59233C0.562319 6.98378 1.55243 8.14578 2.8661 8.40866C2.62499 8.474 2.37143 8.509 2.10932 8.509C1.92499 8.509 1.74454 8.49266 1.56954 8.45844C1.93432 9.60022 2.99599 10.4301 4.2521 10.4534C3.26976 11.2234 2.03154 11.6823 0.685985 11.6823C0.45343 11.6823 0.225541 11.6683 0.000762939 11.6411C1.27165 12.457 2.78132 12.9314 4.40376 12.9314C9.68643 12.9314 12.5759 8.55489 12.5759 4.76011C12.5759 4.63489 12.5728 4.51044 12.5665 4.38755C13.1273 3.98466 13.615 3.47833 14 2.902Z" fill="black"/>
</g>
<defs>
<clipPath id="clip0_1_133">
<rect width="14" height="14" fill="white"/>
</clipPath>
</defs>
</svg>

<svg width="14" height="14" fill="none" xmlns="http://www.w3.org/2000/svg"><g clip-path="url(#a)"><path d="M14 2.902a5.759 5.759 0 0 1-1.65.452 2.88 2.88 0 0 0 1.263-1.588 5.728 5.728 0 0 1-1.823.696 2.872 2.872 0 0 0-2.097-.906 2.872 2.872 0 0 0-2.798 3.526 8.159 8.159 0 0 1-5.92-3 2.87 2.87 0 0 0 .889 3.834 2.866 2.866 0 0 1-1.302-.36v.036c0 1.392.99 2.554 2.304 2.817a2.889 2.889 0 0 1-1.296.05 2.874 2.874 0 0 0 2.682 1.994 5.76 5.76 0 0 1-4.251 1.188 8.12 8.12 0 0 0 4.403 1.29c5.282 0 8.172-4.376 8.172-8.17 0-.126-.003-.25-.01-.373A5.8 5.8 0 0 0 14 2.902Z" fill="#000"/></g><defs><clipPath id="a"><path fill="#fff" d="M0 0h14v14H0z"/></clipPath></defs></svg>
